meters/img/phone-contact.svg

<svg width="24" height="24" viewBox="0 0 24 24" fill="none" xmlns="http://www.w3.org/2000/svg">
<path d="M15.6496 14.8307L15.1187 15.3636C15.1187 15.3636 13.8552 16.6295 10.4078 13.173C6.96029 9.71651 8.22378 8.45062 8.22378 8.45062L8.55745 8.11414C9.38228 7.28825 9.46044 5.96118 8.74061 4.99177L7.27062 3.01175C6.3793 1.81174 4.65847 1.65291 3.63765 2.67645L1.80599 4.51176C1.30083 5.02 0.962499 5.67648 1.00333 6.40589C1.10833 8.27297 1.94599 12.2883 6.61729 16.973C11.5721 21.9401 16.2212 22.1378 18.1217 21.959C18.7237 21.9025 19.2464 21.5943 19.6675 21.1707L21.3242 19.5095C22.4442 18.3883 22.1292 16.4648 20.6965 15.6801L18.4682 14.4577C17.5279 13.9436 16.3846 14.0942 15.6496 14.8307Z" fill="#E7E3DA" fill-opacity="0.5"/>
</svg>

<svg width="24" height="24" fill="none" xmlns="http://www.w3.org/2000/svg"><path d="m15.65 14.83-.531.534s-1.264 1.265-4.711-2.191C6.96 9.717 8.224 8.451 8.224 8.451l.333-.337c.825-.826.903-2.153.184-3.122l-1.47-1.98c-.892-1.2-2.613-1.36-3.633-.336L1.806 4.512c-.505.508-.844 1.164-.803 1.894.105 1.867.943 5.882 5.614 10.567 4.955 4.967 9.604 5.165 11.505 4.986.602-.056 1.124-.365 1.546-.788l1.656-1.662c1.12-1.12.805-3.044-.628-3.829l-2.228-1.222c-.94-.514-2.083-.364-2.818.373Z" fill="#E7E3DA" fill-opacity=".5"/></svg>
